svgs/light/hourglass.svg

<svg xmlns="http://www.w3.org/2000/svg" viewBox="0 0 384 512"><!--! Font Awesome Pro 6.0.0-alpha3 by @fontawesome - https://fontawesome.com License - https://fontawesome.com/license (Commercial License) --><path d="M352 80C352 71.16 344.8 64 336 64S320 71.16 320 80c0 27.5-9.094 54.78-25.59 76.81l-67.2 89.59c-4.266 5.688-4.266 13.5 0 19.19l67.2 89.59C310.9 377.2 320 404.5 320 432c0 8.844 7.156 16 16 16s16-7.156 16-16c0-34.38-11.36-68.47-32-96L260 256L320 176C340.6 148.5 352 114.4 352 80zM32 432C32 440.8 39.16 448 48 448S64 440.8 64 432c0-27.5 9.094-54.78 25.59-76.81l67.2-89.59c4.266-5.688 4.266-13.5 0-19.19L89.59 156.8C73.09 134.8 64 107.5 64 80C64 71.16 56.84 64 48 64S32 71.16 32 80c0 34.38 11.36 68.47 32 96L124 256L64 336C43.36 363.5 32 397.6 32 432zM368 480h-352C7.156 480 0 487.2 0 496S7.156 512 16 512h352c8.844 0 16-7.156 16-16S376.8 480 368 480zM16 32h352C376.8 32 384 24.84 384 16S376.8 0 368 0h-352C7.156 0 0 7.156 0 16S7.156 32 16 32zM112 448h160c8.844 0 16-7.156 16-16c0-24.81-6.453-49.59-18.64-71.72C266.5 355.2 261.2 352 255.3 352H128.7c-5.828 0-11.2 3.156-14.02 8.281C102.5 382.4 96 407.2 96 432C96 440.8 103.2 448 112 448zM138.5 384h106.1c4.656 10.25 7.812 21.03 9.375 32H129.1C130.7 405 133.9 394.3 138.5 384zM179.7 234.3C182.8 237.9 187.3 240 192 240s9.25-2.125 12.3-5.75l49.25-59.13c5.719-6.844 10.88-14.5 15.8-23.38C272.1 146.8 272 140.8 269.1 135.9S261 128 255.3 128H128.7C122.1 128 117.8 131 114.9 135.9S111.9 146.8 114.7 151.8c4.922 8.875 10.08 16.53 15.78 23.38L179.7 234.3zM224.5 160L192 199L159.5 160H224.5z"/></svg>

<svg xmlns="http://www.w3.org/2000/svg" viewBox="0 0 384 512"><!-- Font Awesome Pro 6.0.0-alpha2 by @fontawesome - https://fontawesome.com License - https://fontawesome.com/license (Commercial License) --><path d="M352 80C352 71.156 344.844 64 336 64S320 71.156 320 80C320 107.5 310.906 134.781 294.406 156.812L227.203 246.406C222.937 252.094 222.937 259.906 227.203 265.594L294.406 355.188C310.906 377.219 320 404.5 320 432C320 440.844 327.156 448 336 448S352 440.844 352 432C352 397.625 340.641 363.531 320 336L260 256L320 176C340.641 148.469 352 114.375 352 80ZM32 432C32 440.844 39.156 448 48 448S64 440.844 64 432C64 404.5 73.094 377.219 89.594 355.188L156.797 265.594C161.063 259.906 161.063 252.094 156.797 246.406L89.594 156.812C73.094 134.781 64 107.5 64 80C64 71.156 56.844 64 48 64S32 71.156 32 80C32 114.375 43.359 148.469 64 176L124 256L64 336C43.359 363.531 32 397.625 32 432ZM368 480H16C7.156 480 0 487.156 0 496S7.156 512 16 512H368C376.844 512 384 504.844 384 496S376.844 480 368 480ZM16 32H368C376.844 32 384 24.844 384 16S376.844 0 368 0H16C7.156 0 0 7.156 0 16S7.156 32 16 32ZM112 448H272C280.844 448 288 440.844 288 432C288 407.188 281.547 382.406 269.359 360.281C266.547 355.156 261.172 352 255.344 352H128.656C122.828 352 117.453 355.156 114.641 360.281C102.453 382.406 96 407.188 96 432C96 440.844 103.156 448 112 448ZM138.516 384H245.484C250.141 394.25 253.297 405.031 254.859 416H129.141C130.703 405.031 133.859 394.25 138.516 384ZM179.703 234.25C182.75 237.875 187.25 240 192 240S201.25 237.875 204.297 234.25L253.547 175.125C259.266 168.281 264.422 160.625 269.344 151.75C272.078 146.781 272 140.75 269.125 135.875S261.016 128 255.344 128H128.656C122.984 128 117.75 131 114.875 135.875S111.922 146.781 114.656 151.75C119.578 160.625 124.734 168.281 130.438 175.125L179.703 234.25ZM224.5 160L192 199L159.5 160H224.5Z"/></svg>
